src/apps/symbolic/org.gnome.Settings-region-symbolic.svg

<svg width="16px" height="16px" version="1.1" viewBox="0 0 16 16" xmlns="http://www.w3.org/2000/svg">
 <path d="m3 0c-0.55078 0-1 0.44922-1 1v15h1v-8h3.3828l0.72266 1.4492c0.16797 0.33594 0.51563 0.55078 0.89453 0.55078h5c0.55078 0 1-0.44922 1-1v-6c0-0.55078-0.44922-1-1-1h-3.3828l-0.72266-1.4492c-0.16797-0.33594-0.51563-0.55078-0.89453-0.55078zm0 1h5l1 2h4v6h-5l-1-2h-4z" fill="#363636"/>
</svg>

<svg xmlns="http://www.w3.org/2000/svg" width="16" height="16">
    <path fill="#050505" fill-opacity=".7" d="M3 0c-.55 0-1 .45-1 1v15h1V8h3.383l.722 1.45c.168.335.516.55.895.55h5c.55 0 1-.45 1-1V3c0-.55-.45-1-1-1H9.617L8.895.55A1.002 1.002 0 0 0 8 0zm0 1h5l1 2h4v6H8L7 7H3z"/>
</svg>
